X: 27885
T: Mountain Dew
R: reel
M: 4/4
K: Dmajor
|:d/d/|ed BG A/B/A/G/ ED|GB AG d2d d/d/|
ed BG A/B/A/G/ ED|GB A/G/A G2G:|
|:d/d/|ed Bd/d/ ed Gd/d/|ed BG E2E d/d/|
ed BG A/B/A/G/ ED|GB A/G/A G2G:|

